X: 3
T:Boy From Home (#113), A
M:6/8
L:1/8
S:Patrick Stack, Chicago
K:G
D|GBA G2 B|def gdB|GBA G2 B|AFD DEF|
GBA G2 B|def gfg|ecA GAG|FEF G2:|
|:B|d3 dcd|e2 f gfe|ded/2c/2 Bcd|ecA GFE|
d3 dcd|e2 f gfg|ecA GAG|FEF G2:||

